<?xml version="1.0" encoding="UTF-8"?>
<map version="1.10"
     tiledversion="1.11.2"
     orientation="orthogonal"
     renderorder="right-down"
     width="19"
     height="13"
     tilewidth="16"
     tileheight="16"
     infinite="0"
     nextlayerid="4"
     nextobjectid="3">

 <properties>
  <property name="roomCells" value="#"/>
  <property name="roomShape" value="1x1"/>
  <property name="roomType" value="NORMAL"/>
 </properties>

 <tileset firstgid="1" source="../../tiles/interior-placeholder.tsx"/>

 <layer id="1" name="Ground" width="19" height="13">
  <properties>
   <property name="layerKind" value="GROUND"/>
  </properties>
  <data encoding="csv">
7,7,7,7,7,7,7,7,7,16,7,7,7,7,8,7,7,7,7,
7,1,1,1,1,1,1,1,1,2,1,1,1,3,4,4,3,1,7,
7,1,1,1,1,1,1,1,2,1,1,1,1,3,4,4,3,1,7,
7,1,1,2,2,1,1,1,1,2,1,1,1,3,4,4,3,1,7,
7,1,2,2,2,1,1,1,1,2,1,1,1,3,4,4,3,1,7,
7,1,1,1,1,1,1,1,2,1,1,1,1,3,4,4,3,1,8,
16,2,2,2,2,2,2,2,2,2,2,2,2,2,9,9,2,2,16,
7,1,1,1,1,1,1,1,1,2,1,1,1,3,4,4,3,1,7,
7,1,1,1,1,1,1,1,1,2,1,1,1,3,4,4,3,1,7,
7,1,1,1,1,1,2,1,1,1,2,1,1,3,4,4,3,1,7,
7,1,1,1,1,2,2,2,1,1,2,1,1,3,4,4,3,1,7,
7,1,1,1,1,1,1,1,1,2,1,1,1,3,4,4,3,1,7,
7,7,7,7,7,8,7,7,7,16,7,7,7,7,7,7,7,7,7
</data>
 </layer>

 <layer id="2" name="Details" width="19" height="13">
  <properties>
   <property name="layerKind" value="DETAILS"/>
  </properties>
  <data encoding="csv">
0,0,0,0,0,0,0,0,0,0,0,0,0,0,0,0,0,0,0,
0,0,13,0,0,0,0,0,0,0,0,0,0,0,0,0,0,0,0,
0,0,0,0,0,0,13,0,0,0,0,0,0,0,0,0,0,13,0,
0,0,0,0,0,0,0,0,0,0,0,0,0,0,0,0,0,0,0,
0,0,0,0,0,0,0,0,0,0,0,13,0,0,0,0,0,0,0,
0,0,0,0,0,0,0,0,0,0,0,0,0,0,0,0,0,0,0,
0,0,0,0,0,0,0,0,0,0,0,0,0,0,0,0,0,0,0,
0,0,0,0,0,0,0,0,0,0,0,0,14,0,0,0,0,0,0,
0,0,0,13,0,0,0,0,0,0,0,0,0,0,0,0,0,0,0,
0,0,0,0,0,0,0,0,0,0,0,13,0,0,0,0,0,0,0,
0,0,0,0,0,0,0,0,0,0,0,0,0,0,0,0,0,13,0,
0,0,0,0,0,0,13,0,0,0,0,0,0,0,0,0,0,0,0,
0,0,0,0,0,0,0,0,0,0,0,0,0,0,0,0,0,0,0
</data>
 </layer>

 <objectgroup id="3" name="Markers">
  <object id="1" name="enemy-a" type="ENEMY_SPAWN" x="88" y="56"><point/></object>
  <object id="2" name="enemy-b" type="ENEMY_SPAWN" x="280" y="136"><point/></object>
 </objectgroup>
</map>
