<?xml version="1.0" encoding="UTF-8"?>
<map version="1.10"
     tiledversion="1.11.2"
     orientation="orthogonal"
     renderorder="right-down"
     width="19"
     height="13"
     tilewidth="16"
     tileheight="16"
     infinite="0"
     nextlayerid="4"
     nextobjectid="4">

 <properties>
  <property name="roomCells" value="#"/>
  <property name="roomShape" value="1x1"/>
  <property name="roomType" value="NORMAL"/>
 </properties>

 <tileset firstgid="1" source="../../tiles/interior-placeholder.tsx"/>

 <layer id="1" name="Ground" width="19" height="13">
  <properties>
   <property name="layerKind" value="GROUND"/>
  </properties>
  <data encoding="csv">
7,7,7,7,8,7,7,7,7,16,7,7,7,7,7,7,7,7,7,
7,1,1,1,1,1,1,1,1,2,1,1,1,1,1,1,1,1,7,
7,1,1,1,1,1,1,1,1,2,1,21,21,21,21,21,1,1,7,
7,1,1,1,1,1,1,1,1,2,1,21,21,21,21,21,1,1,8,
7,1,1,1,1,1,1,1,1,2,1,22,22,23,22,22,1,1,7,
7,1,1,1,1,1,1,1,1,2,1,2,2,2,2,2,1,1,7,
16,2,2,2,2,2,2,2,2,2,2,2,2,2,2,2,2,2,16,
7,1,1,1,1,1,1,1,1,2,1,1,1,1,1,1,1,1,7,
7,1,2,2,2,2,2,1,1,2,1,1,1,1,1,1,1,1,7,
7,1,2,2,2,2,2,1,1,2,1,1,1,1,1,1,1,1,7,
7,1,1,1,1,1,1,1,1,2,1,1,1,1,1,1,1,1,7,
7,1,1,1,1,1,1,1,1,2,1,1,1,1,1,1,1,1,7,
7,7,7,7,7,7,7,7,7,16,7,7,7,7,8,7,7,7,7
</data>
 </layer>

 <layer id="2" name="Details" width="19" height="13">
  <properties>
   <property name="layerKind" value="DETAILS"/>
  </properties>
  <data encoding="csv">
0,0,0,0,0,0,0,0,0,0,0,0,0,0,0,0,0,0,0,
0,0,0,0,0,0,0,0,0,0,0,0,0,0,0,0,13,0,0,
0,0,13,0,0,0,0,0,0,0,0,0,0,0,0,0,0,0,0,
0,0,0,0,0,0,0,0,0,0,0,0,0,0,0,0,0,0,0,
0,0,0,0,0,0,13,0,0,0,0,0,0,0,0,0,0,0,0,
0,0,0,0,0,0,0,0,0,0,0,0,0,0,0,0,0,0,0,
0,0,0,0,0,0,0,0,0,0,0,0,0,0,0,0,0,0,0,
0,0,0,0,0,0,0,0,0,0,0,0,0,0,0,0,0,0,0,
0,0,13,0,13,0,13,0,0,0,0,0,0,0,0,0,0,0,0,
0,0,0,13,0,13,0,0,0,0,0,0,0,13,0,0,0,0,0,
0,0,0,0,0,0,0,0,0,0,0,0,0,0,0,0,0,0,0,
0,0,0,0,0,0,0,0,0,0,0,0,0,0,0,0,13,0,0,
0,0,0,0,0,0,0,0,0,0,0,0,0,0,0,0,0,0,0
</data>
 </layer>

 <objectgroup id="3" name="Markers">
  <object id="1" type="PREFAB" x="176" y="32" width="80" height="64">
   <properties>
    <property name="prefab" value="structure.hut"/>
   </properties>
  </object>
  <object id="2" name="hut-front" type="ACCESS" x="216" y="88"><point/></object>
  <object id="3" name="enemy-a" type="ENEMY_SPAWN" x="232" y="152"><point/></object>
 </objectgroup>
</map>
