<?xml version="1.0" encoding="UTF-8"?>
<map version="1.10"
     tiledversion="1.11.2"
     orientation="orthogonal"
     renderorder="right-down"
     width="38"
     height="13"
     tilewidth="16"
     tileheight="16"
     infinite="0"
     nextlayerid="4"
     nextobjectid="4">

 <properties>
  <property name="roomCells" value="##"/>
  <property name="roomShape" value="2x1"/>
  <property name="roomType" value="NORMAL"/>
 </properties>

 <tileset firstgid="1" source="../../tiles/interior-placeholder.tsx"/>

 <layer id="1" name="Ground" width="38" height="13">
  <properties>
   <property name="layerKind" value="GROUND"/>
  </properties>
  <data encoding="csv">
7,7,7,7,7,8,7,7,7,16,7,7,7,7,7,7,7,7,7,7,7,7,7,8,7,7,7,7,16,7,7,7,7,7,7,7,7,7,
7,5,5,5,5,5,5,5,5,5,5,5,5,5,5,5,5,2,2,2,1,1,1,1,1,1,1,1,2,1,1,1,1,1,1,1,1,7,
7,5,5,6,6,5,5,5,5,5,5,5,5,5,5,5,5,2,2,2,6,1,1,1,1,1,1,1,2,1,1,1,1,1,1,1,1,7,
8,5,5,5,6,5,5,5,5,5,5,5,5,5,5,5,5,2,2,1,1,1,1,1,1,1,1,1,2,1,1,1,1,1,1,1,1,7,
7,5,5,5,5,5,5,5,5,5,5,5,5,5,5,5,2,5,2,2,1,1,1,1,1,1,1,1,2,1,1,1,1,1,1,1,1,7,
7,5,5,5,5,5,5,6,5,5,5,5,5,5,5,5,5,2,2,2,1,1,1,1,1,1,1,1,2,1,1,1,1,1,1,1,1,7,
16,5,5,5,5,5,5,5,5,5,5,5,5,5,5,5,5,2,2,1,1,1,1,1,1,1,1,1,2,2,2,2,2,2,2,2,2,16,
7,5,5,5,5,5,5,5,5,5,5,5,5,5,5,5,5,2,2,2,1,3,3,3,3,3,3,3,2,3,3,3,3,3,3,3,3,7,
7,5,5,5,5,5,5,5,5,5,5,5,5,5,5,5,5,5,2,2,3,4,4,4,4,4,4,4,10,4,4,4,4,4,4,4,4,7,
7,5,5,5,5,5,5,5,5,5,5,5,6,6,5,5,2,2,2,1,3,4,4,4,4,4,4,4,10,4,4,4,4,4,4,4,4,8,
7,5,5,5,5,5,5,5,5,5,5,5,5,6,5,5,5,2,2,2,1,3,3,3,3,3,3,3,2,3,3,3,3,3,3,3,3,7,
7,5,5,5,5,5,5,5,5,5,5,5,5,5,5,5,5,2,2,2,1,1,1,1,1,1,1,1,2,1,1,1,1,1,1,1,1,7,
7,7,7,7,7,7,7,7,7,16,7,7,7,7,8,7,7,7,7,7,7,7,7,7,7,7,7,7,16,7,7,7,7,8,7,7,7,7
</data>
 </layer>

 <layer id="2" name="Details" width="38" height="13">
  <properties>
   <property name="layerKind" value="DETAILS"/>
  </properties>
  <data encoding="csv">
0,0,0,0,0,0,0,0,0,0,0,0,0,0,0,0,0,0,0,0,0,0,0,0,0,0,0,0,0,0,0,0,0,0,0,0,0,0,
0,15,0,0,0,0,0,0,0,0,0,0,0,0,0,15,0,0,0,0,0,0,0,0,0,0,0,0,0,0,0,0,0,0,0,0,0,0,
0,0,0,0,0,0,0,0,0,0,0,0,0,0,0,0,0,0,0,0,0,0,13,0,0,0,0,0,0,0,0,0,0,13,0,0,0,0,
0,0,0,0,0,0,0,0,0,0,12,12,0,0,0,0,0,0,0,0,0,0,0,0,0,0,0,0,0,0,0,0,0,0,0,0,0,0,
0,0,0,0,0,0,0,0,0,0,0,0,0,0,0,0,0,0,0,0,0,0,0,0,0,13,0,0,0,0,0,0,0,0,0,13,0,0,
0,0,0,0,0,0,0,0,0,0,0,0,0,0,0,0,0,0,0,0,0,13,0,0,0,0,0,0,0,0,0,0,0,0,0,0,0,0,
0,0,0,0,0,0,14,0,0,0,0,0,0,0,0,0,0,0,0,0,0,0,0,0,0,0,0,0,0,0,0,0,0,0,0,0,0,0,
0,0,0,0,0,0,0,0,0,0,0,0,0,0,0,0,0,0,0,0,0,0,0,0,0,0,0,0,0,0,0,0,0,0,0,0,0,0,
0,0,0,0,0,0,0,0,0,0,0,0,0,0,0,0,0,0,0,0,0,0,0,0,0,0,0,0,0,0,0,0,0,0,0,0,0,0,
0,0,0,0,0,0,0,0,0,0,0,0,0,0,0,0,0,0,0,0,0,0,0,0,0,0,0,0,0,0,0,0,0,0,0,0,0,0,
0,0,0,0,0,0,0,0,0,0,0,0,0,0,0,0,0,0,0,0,0,0,0,0,0,0,0,0,0,0,0,0,0,0,0,0,0,0,
0,15,0,0,0,0,0,0,0,0,0,0,0,0,0,15,0,0,0,0,0,0,0,13,0,0,0,0,0,0,0,13,0,0,0,0,0,0,
0,0,0,0,0,0,0,0,0,0,0,0,0,0,0,0,0,0,0,0,0,0,0,0,0,0,0,0,0,0,0,0,0,0,0,0,0,0
</data>
 </layer>

 <objectgroup id="3" name="Markers">
  <object id="1" name="enemy-a" type="ENEMY_SPAWN" x="136" y="136"><point/></object>
  <object id="2" name="enemy-b" type="ENEMY_SPAWN" x="520" y="56"><point/></object>
  <object id="3" name="chest" type="CHEST_SPAWN" x="568" y="184"><point/></object>
 </objectgroup>
</map>
