<?xml version="1.0" encoding="UTF-8"?>
<map version="1.10"
     tiledversion="1.11.2"
     orientation="orthogonal"
     renderorder="right-down"
     width="19"
     height="13"
     tilewidth="16"
     tileheight="16"
     infinite="0"
     nextlayerid="4"
     nextobjectid="4">

 <properties>
  <property name="roomCells" value="#"/>
  <property name="roomShape" value="1x1"/>
  <property name="roomType" value="SHOP"/>
 </properties>

 <tileset firstgid="1" source="../../tiles/interior-placeholder.tsx"/>

 <layer id="1" name="Ground" width="19" height="13">
  <properties>
   <property name="layerKind" value="GROUND"/>
  </properties>
  <data encoding="csv">
7,7,7,7,8,7,7,7,7,7,7,7,7,7,7,7,7,7,7,
7,5,5,5,5,5,5,5,5,5,5,5,5,5,5,5,5,5,7,
7,5,5,5,5,5,5,18,18,18,18,18,5,5,5,5,5,5,7,
7,5,5,5,5,5,5,5,5,5,5,5,5,5,5,5,5,5,7,
7,5,5,5,5,5,5,5,5,5,5,5,5,5,5,5,5,5,7,
7,5,5,6,5,5,5,5,5,5,5,5,5,5,6,5,5,5,7,
16,5,5,5,5,5,5,5,5,5,5,5,5,5,5,5,5,5,16,
7,5,5,5,5,5,5,5,5,5,5,5,5,5,5,5,5,5,7,
7,5,5,5,6,6,5,5,5,5,5,5,5,5,5,5,5,5,7,
7,5,5,5,5,5,5,5,5,5,6,6,5,5,5,5,5,5,7,
7,5,5,5,5,5,5,5,5,5,5,5,5,5,5,5,5,5,7,
7,5,5,5,5,5,5,5,5,5,5,5,5,5,5,5,5,5,7,
7,7,7,7,7,7,7,7,7,16,7,7,7,7,7,7,7,8,7
</data>
 </layer>

 <layer id="2" name="Details" width="19" height="13">
  <properties>
   <property name="layerKind" value="DETAILS"/>
  </properties>
  <data encoding="csv">
0,0,0,0,0,0,0,0,0,0,0,0,0,0,0,0,0,0,0,
0,15,0,0,0,0,0,0,0,0,0,0,0,0,0,0,0,15,0,
0,0,0,0,0,0,0,0,0,0,0,0,0,0,0,0,0,0,0,
0,0,0,0,0,0,0,0,0,0,0,0,0,0,0,0,0,0,0,
0,0,0,0,0,0,0,0,0,0,0,0,0,0,0,0,0,0,0,
0,0,0,0,0,0,0,0,0,0,0,0,0,0,0,0,0,0,0,
0,0,0,0,0,0,0,0,0,0,0,0,0,0,0,0,0,0,0,
0,0,0,0,0,0,0,0,0,0,0,0,0,0,0,0,0,0,0,
0,0,0,0,0,0,0,0,0,0,0,0,0,0,0,0,0,0,0,
0,0,0,0,0,0,0,0,0,0,0,0,0,0,0,0,0,0,0,
0,0,0,0,0,0,0,0,0,0,0,0,0,0,0,0,0,0,0,
0,15,0,0,0,0,0,0,0,0,0,0,0,0,0,0,0,15,0,
0,0,0,0,0,0,0,0,0,0,0,0,0,0,0,0,0,0,0
</data>
 </layer>

 <objectgroup id="3" name="Markers">
  <object id="1" type="PREFAB" x="96" y="16" width="112" height="48">
   <properties>
    <property name="prefab" value="shop.counter"/>
   </properties>
  </object>
  <object id="2" name="shopkeeper" type="SHOPKEEPER" x="152" y="24"><point/></object>
  <object id="3" name="counter-front" type="ACCESS" x="152" y="56"><point/></object>
 </objectgroup>
</map>
