<?xml version="1.0" encoding="UTF-8"?>
<map version="1.10" tiledversion="1.11.2" orientation="orthogonal" renderorder="right-down" width="19" height="13" tilewidth="16" tileheight="16" infinite="0" nextlayerid="4" nextobjectid="2">
 <properties>
  <property name="roomId" type="int" value="3"/>
  <property name="cells" type="int" value="1"/>
  <property name="roomCells" value="#"/>
 </properties>
 <tileset firstgid="1" source="../../tiles/terrain.tsx"/>

 <layer id="1" name="Ground" width="19" height="13">
  <properties>
   <property name="layerKind" value="GROUND"/>
  </properties>
  <data encoding="csv">
7,7,7,7,7,7,7,7,7,16,7,7,7,7,7,7,7,7,7,
7,5,5,5,5,5,5,5,5,5,5,5,5,5,5,5,5,5,7,
7,5,5,5,5,5,5,5,5,5,5,6,5,5,5,5,5,5,7,
7,5,5,5,5,5,5,5,5,5,5,5,5,5,5,5,5,5,7,
7,5,5,5,5,5,5,5,5,6,5,5,5,5,5,5,5,6,7,
7,5,5,5,5,5,5,6,5,5,5,5,5,5,5,5,5,5,7,
7,5,5,5,5,5,5,5,5,5,5,5,5,5,5,5,5,5,16,
7,5,5,5,5,5,5,5,5,5,5,5,5,5,5,5,5,6,7,
7,5,5,5,5,6,5,5,5,5,5,5,5,5,5,5,5,5,7,
7,5,5,5,5,5,5,5,5,5,5,6,5,6,5,5,5,6,7,
7,5,5,5,5,5,5,5,5,5,5,5,5,5,6,5,6,5,7,
7,5,5,5,5,5,5,5,5,5,5,5,6,5,5,5,5,5,7,
7,7,7,7,7,7,7,7,7,7,7,7,7,7,7,7,7,7,7
  </data>
 </layer>

 <layer id="2" name="Details" width="19" height="13">
  <properties>
   <property name="layerKind" value="DETAILS"/>
  </properties>
  <data encoding="csv">
0,0,0,0,0,0,0,0,0,0,0,0,0,0,0,0,0,0,0,
0,0,0,0,0,0,0,15,0,0,0,0,0,0,0,0,0,0,0,
0,0,0,0,0,0,0,14,0,0,0,0,0,0,0,0,0,0,0,
0,0,0,0,0,0,0,0,0,0,0,0,0,0,0,0,0,0,0,
0,0,0,0,0,0,0,0,0,0,0,0,0,0,0,0,0,0,0,
0,0,0,0,0,0,0,0,0,0,0,0,0,0,0,0,0,0,0,
0,0,0,0,0,0,0,0,0,0,0,0,0,0,0,0,0,14,0,
0,0,0,0,0,0,0,0,0,0,0,0,0,0,15,0,0,0,0,
0,0,0,0,0,0,0,0,0,0,0,0,0,0,0,0,0,0,0,
0,0,0,0,0,0,0,0,0,0,0,0,0,0,0,0,0,0,0,
0,0,0,0,0,0,0,0,0,0,0,0,0,0,0,0,0,0,0,
0,0,0,0,0,0,0,0,0,0,0,0,0,0,0,0,0,0,0,
0,0,0,0,0,0,0,0,0,0,0,0,0,0,0,0,0,0,0
  </data>
 </layer>

 <objectgroup id="3" name="Markers">
  <object id="1" name="enemy_spawn" type="ENEMY_SPAWN" x="152" y="104">
   <point/>
  </object>
 </objectgroup>
</map>
